src/ui/Svg/optimized/technical-comm.svg

<?xml version="1.0" standalone="no"?>
<!DOCTYPE svg PUBLIC "-//W3C//DTD SVG 1.1//EN" "http://www.w3.org/Graphics/SVG/1.1/DTD/svg11.dtd">
<svg class="icon" version="1.1" viewBox="0 0 1024 1024" fill="currentColor" aria-hidden="true">
  <path d="M730.45105813 809.31498667c2.18453333 0 4.00497813 1.85685333 4.00497707 4.15061333v58.4726752a4.0777952 4.0777952 0 0 1-4.00497707 4.15061333H299.80672c-2.18453333 0-4.00497813-1.8204448-4.00497814-4.15061333V813.4656c0-2.29376 1.8204448-4.15061333 4.00497814-4.15061333zM893.92696853 147.91111147C915.9907552 147.91111147 933.83111146 166.40682667 933.83111146 189.2352v518.35335147c0 22.82837333-17.8403552 41.32408853-39.86773333 41.32408853H136.2944C114.26702186 748.91264 96.42666666 730.4169248 96.42666666 707.58855147V189.2352C96.42666666 166.40682667 114.26702186 147.91111147 136.2944 147.91111147z m-272.37489707 133.54780373l-38.3749696 39.79491627 115.16131627 119.38474666-115.16131627 119.34833707 38.3749696 39.8313248 153.4998752-159.17966187z m-210.5526048 0L257.46318186 440.63857813l153.5362848 159.14325334 38.41137814-39.79491627L334.17671146 440.63857813l115.19772374-119.38474666z"/>
</svg>

<svg xmlns="http://www.w3.org/2000/svg" class="icon" viewBox="0 0 1024 1024" fill="currentColor" aria-hidden="true">
  <path d="M730.451 809.315c2.185 0 4.005 1.857 4.005 4.15v58.473a4.078 4.078 0 01-4.005 4.15H299.807c-2.185 0-4.005-1.82-4.005-4.15v-58.472c0-2.294 1.82-4.151 4.005-4.151zm163.476-661.404c22.064 0 39.904 18.496 39.904 41.324V707.59c0 22.828-17.84 41.324-39.868 41.324H136.294c-22.027 0-39.867-18.496-39.867-41.324V189.235c0-22.828 17.84-41.324 39.867-41.324zM621.552 281.46l-38.375 39.795 115.161 119.385-115.16 119.348 38.374 39.831 153.5-159.18zm-210.553 0l-153.536 159.18L411 599.782l38.412-39.795-115.234-119.348 115.197-119.385z"/>
</svg>
